;FLAVOR:Marlin
;TIME:10417
;Filament used: 16.2979m
;Layer height: 0.15
;MINX:79.73
;MINY:38.462
;MINZ:0.3
;MAXX:170.27
;MAXY:214.323
;MAXZ:6
;Generated with Cura_SteamEngine 4.13.1
M140 S60
M105
M190 S60
M104 S220
M105
M109 S220
M82 ;absolute extrusion mode
G21 ;metric values
G90 ;absolute positioning
M82 ;set extruder to absolute mode
M107 ;start with the fan off
G28 X0 Y0 ;move X/Y to min endstops
M300 S1318 P266
G28 Z0 ;move Z to min endstops
G0 Z0.2
G92 E0 ;zero the extruded length
G1 X40 E25 F400 ; Extrude 25mm of filament in a 4cm line. Reduce speed (F) if you have a nozzle smaller than 0.4mm!
G92 E0 ;zero the extruded length again
G1 E-1 F500 ; Retract a little
G1 X80 F4000 ; Quickly wipe away from the filament line
M117 ; Printing…
G5
G92 E0
G92 E0
G1 F2400 E-1
;LAYER_COUNT:39
;LAYER:0
M107
G0 F3600 X80.784 Y42.668 Z0.3
;TYPE:SKIRT
G1 F2400 E0
G1 F3000 X81.109 Y42.133 E0.03123
G1 X81.231 Y41.959 E0.04183
G1 X81.55 Y41.534 E0.06834
G1 X81.893 Y41.133 E0.09467
G1 X82.274 Y40.743 E0.12187
G1 X82.693 Y40.371 E0.14983
G1 X83.115 Y40.04 E0.17658
G1 X83.624 Y39.698 E0.20718
G1 X84.158 Y39.396 E0.23778
G1 X84.865 Y39.072 E0.27658
G1 X85.497 Y38.843 E0.31012
G1 X86.209 Y38.659 E0.34681
G1 X86.819 Y38.549 E0.37773
G1 X87.568 Y38.483 E0.41524
G1 X88.247 Y38.463 E0.44914
G1 X161.425 Y38.462 E4.1
G1 X162.254 Y38.474 E4.14136
G1 X162.871 Y38.513 E4.17221
G1 X163.38 Y38.579 E4.19781
G1 X163.959 Y38.695 E4.22727
G1 X164.172 Y38.752 E4.23827
G1 X164.661 Y38.898 E4.26374
G1 X165.227 Y39.107 E4.29384
G1 X165.81 Y39.379 E4.32593
G1 X166.525 Y39.795 E4.3672
G1 X167.109 Y40.212 E4.403
G1 X167.598 Y40.624 E4.4349
G1 X168.136 Y41.165 E4.47297
G1 X168.526 Y41.626 E4.5031
G1 X169.035 Y42.362 E4.54774
G1 X169.331 Y42.877 E4.57737
G1 X169.491 Y43.208 E4.59572
G1 X169.696 Y43.684 E4.62157
G1 X169.874 Y44.185 E4.6481
G1 X170.098 Y45.056 E4.69297
G1 X170.188 Y45.592 E4.72008
G1 X170.249 Y46.301 E4.75559
G1 X170.269 Y46.928 E4.78688
G1 X170.27 Y118.017 E8.33353
G1 X170.258 Y118.85 E8.37509
G1 X170.252 Y118.994 E8.38228
G1 X170.157 Y120.597 E8.46239
G1 X170.031 Y123.371 E8.60093
G1 X169.984 Y126.125 E8.73835
G1 X170.015 Y128.86 E8.87481
G1 X170.154 Y132.167 E9.03994
G1 X170.254 Y133.866 E9.12485
G1 X170.27 Y134.519 E9.15744
G1 X170.27 Y205.478 E12.6976
G1 X170.258 Y206.312 E12.73921
G1 X170.214 Y206.97 E12.77211
G1 X170.147 Y207.474 E12.79748
G1 X170.018 Y208.092 E12.82898
G1 X169.856 Y208.652 E12.85806
G1 X169.676 Y209.152 E12.88457
G1 X169.468 Y209.631 E12.91062
G1 X169.215 Y210.124 E12.93827
G1 X168.938 Y210.581 E12.96493
G1 X168.52 Y211.163 E13.00068
G1 X168.082 Y211.679 E13.03445
G1 X167.718 Y212.049 E13.06034
G1 X167.317 Y212.405 E13.08709
G1 X166.805 Y212.801 E13.11939
G1 X166.313 Y213.126 E13.1488
G1 X165.816 Y213.402 E13.17717
G1 X165.135 Y213.713 E13.21452
G1 X164.547 Y213.926 E13.24572
G1 X163.891 Y214.106 E13.27966
G1 X163.134 Y214.241 E13.31802
G1 X162.432 Y214.302 E13.35317
G1 X161.753 Y214.322 E13.38706
G1 X88.575 Y214.323 E17.03793
G1 X87.739 Y214.311 E17.07964
G1 X87.156 Y214.275 E17.10878
G1 X86.631 Y214.208 E17.13519
G1 X86.026 Y214.086 E17.16598
G1 X85.435 Y213.919 E17.19662
G1 X84.916 Y213.734 E17.22411
G1 X84.396 Y213.509 E17.25237
G1 X83.95 Y213.278 E17.27743
G1 X83.493 Y213.003 E17.30404
G1 X83.049 Y212.696 E17.33097
G1 X82.628 Y212.362 E17.35778
G1 X82.235 Y212.006 E17.38424
G1 X81.832 Y211.583 E17.41339
G1 X81.502 Y211.194 E17.43884
G1 X80.986 Y210.457 E17.48372
G1 X80.663 Y209.898 E17.51593
G1 X80.327 Y209.162 E17.5563
G1 X80.087 Y208.466 E17.59303
G1 X79.939 Y207.91 E17.62173
G1 X79.81 Y207.17 E17.65921
G1 X79.75 Y206.468 E17.69436
G1 X79.731 Y205.813 E17.72705
G1 X79.73 Y134.758 E21.272
G1 X79.742 Y133.942 E21.31271
G1 X79.747 Y133.804 E21.3196
G1 X79.846 Y132.097 E21.40491
G1 X79.873 Y131.672 E21.42615
G1 X79.982 Y128.986 E21.56027
G1 X80.016 Y126.232 E21.69768
G1 X79.973 Y123.481 E21.83494
G1 X79.847 Y120.66 E21.97582
G1 X79.747 Y118.936 E22.06198
G1 X79.73 Y118.258 E22.09581
G1 X79.73 Y47.323 E25.63478
G1 X79.742 Y46.484 E25.67664
G1 X79.779 Y45.903 E25.70568
G1 X79.852 Y45.32 E25.735
G1 X79.95 Y44.828 E25.76002
G1 X80.144 Y44.133 E25.79602
G1 X80.324 Y43.633 E25.82254
G1 X80.533 Y43.153 E25.84865
G1 X80.784 Y42.668 E25.8759
G1 F2400 E24.8759
;MESH:Upper_Leg_Link_1.stl
G0 F3600 X82.974 Y43.931
G0 X84.136 Y44.475
G0 X91.556 Y51.304
G0 X92.21 Y51.663
G1 F2400 E25.8759
G0 F3600 X92.237 Y51.567
;TYPE:WALL-INNER
G1 F3000 X92.93 Y51.666 E25.91082
G1 X93.634 Y51.565 E25.94631
G1 X94.284 Y51.27 E25.98192
G1 X94.823 Y50.802 E26.01753
G1 X95.207 Y50.203 E26.05303
G1 X95.41 Y49.519 E26.08863
G1 X95.409 Y48.805 E26.12425
G1 X95.208 Y48.122 E26.15977
G1 X94.824 Y47.522 E26.19531
G1 X94.283 Y47.055 E26.23096
G1 X93.635 Y46.759 E26.2665
G1 X92.929 Y46.657 E26.30209
G1 X92.213 Y46.763 E26.3382
G1 X91.566 Y47.063 E26.37378
G1 X91.029 Y47.532 E26.40935
G1 X90.649 Y48.132 E26.44479
G1 X90.451 Y48.805 E26.47979
G1 X90.451 Y49.52 E26.51546
G1 X90.652 Y50.203 E26.55098
G1 X91.037 Y50.803 E26.58654
G1 X91.577 Y51.271 E26.62219
G1 X92.237 Y51.567 E26.65828
G0 F3600 X92.21 Y51.663
G0 X156.35 Y51.663
G0 X156.377 Y51.567
G1 F3000 X157.07 Y51.666 E26.69321
G1 X157.775 Y51.565 E26.72874
G1 X158.434 Y51.262 E26.76492
G1 X158.97 Y50.794 E26.80042
G1 X159.349 Y50.203 E26.83545
G1 X159.55 Y49.518 E26.87107
G1 X159.549 Y48.805 E26.90664
G1 X159.348 Y48.122 E26.94216
G1 X158.964 Y47.522 E26.9777
G1 X158.423 Y47.055 E27.01335
G1 X157.775 Y46.759 E27.0489
G1 X157.07 Y46.657 E27.08444
G1 X156.365 Y46.759 E27.11997
G1 X155.717 Y47.055 E27.15552
G1 X155.176 Y47.523 E27.1912
G1 X154.789 Y48.132 E27.2272
G1 X154.591 Y48.805 E27.2622
G1 X154.591 Y49.52 E27.29787
G1 X154.792 Y50.203 E27.33339
G1 X155.178 Y50.804 E27.36903
G1 X155.727 Y51.276 E27.40515
G1 X156.377 Y51.567 E27.44068
G0 F3600 X156.35 Y51.663
G0 X154.552 Y116.525
G0 X154.756 Y117.219
G0 X155.148 Y117.83
G0 X156.35 Y118.663
G0 X156.377 Y118.567
G1 F3000 X157.07 Y118.666 E27.47561
G1 X157.775 Y118.565 E27.51114
G1 X158.434 Y118.262 E27.54732
G1 X158.97 Y117.794 E27.58282
G1 X159.349 Y117.203 E27.61785
G1 X159.55 Y116.518 E27.65347
G1 X159.549 Y115.805 E27.68904
G1 X159.348 Y115.122 E27.72456
G1 X158.964 Y114.522 E27.7601
G1 X158.423 Y114.055 E27.79575
G1 X157.775 Y113.759 E27.83129
G1 X157.07 Y113.657 E27.86683
G1 X156.365 Y113.759 E27.90237
G1 X155.717 Y114.055 E27.93791
G1 X155.176 Y114.523 E27.9736
G1 X154.789 Y115.132 E28.0096
G1 X154.591 Y115.805 E28.0446
G1 X154.591 Y116.52 E28.08027
G1 X154.792 Y117.203 E28.11579
G1 X155.178 Y117.804 E28.15143
G1 X155.727 Y118.276 E28.18755
G1 X156.377 Y118.567 E28.22308
G0 F3600 X156.35 Y118.663
G0 X162.035 Y122.963
G0 X162.039 Y123.062
G1 F3000 X87.962 Y123.062 E31.9188
G1 X87.161 Y122.993 E31.95891
G1 X86.432 Y122.797 E31.99657
G1 X85.73 Y122.47 E32.0352
G1 X85.097 Y122.027 E32.07375
G1 X84.555 Y121.483 E32.11206
G1 X84.122 Y120.862 E32.14983
G1 X83.791 Y120.149 E32.18905
G1 X83.598 Y119.428 E32.22629
G1 X83.53 Y118.65 E32.26525
G1 X83.53 Y46.683 E35.8557
G1 X83.601 Y45.884 E35.89572
G1 X83.804 Y45.141 E35.93414
G1 X84.119 Y44.465 E35.97135
G1 X84.564 Y43.832 E36.00995
G1 X85.101 Y43.294 E36.04788
G1 X85.737 Y42.849 E36.0866
G1 X86.439 Y42.525 E36.12518
G1 X87.161 Y42.331 E36.16247
G1 X87.962 Y42.262 E36.20258
G1 X162.065 Y42.262 E39.8996
G1 X162.832 Y42.33 E39.93801
G1 X163.577 Y42.531 E39.97651
G1 X164.27 Y42.854 E40.01466
G1 X164.899 Y43.295 E40.05298
G1 X165.451 Y43.849 E40.092
G1 X165.884 Y44.474 E40.12993
G1 X166.206 Y45.167 E40.16806
G1 X166.403 Y45.911 E40.20645
G1 X166.47 Y46.671 E40.24452
G1 X166.47 Y118.657 E43.83591
G1 X166.402 Y119.424 E43.87433
G1 X166.196 Y120.184 E43.91361
G1 X165.88 Y120.862 E43.95093
G1 X165.435 Y121.494 E43.9895
G1 X164.889 Y122.037 E44.02791
G1 X164.254 Y122.478 E44.06648
G1 X163.564 Y122.799 E44.10445
G1 X162.823 Y122.995 E44.14269
G1 X162.039 Y123.062 E44.18195
G0 F3600 X162.035 Y122.963
G0 X92.21 Y118.663
G0 X92.237 Y118.567
G1 F3000 X92.93 Y118.666 E44.21687
G1 X93.634 Y118.565 E44.25235
G1 X94.284 Y118.27 E44.28797
G1 X94.823 Y117.802 E44.32358
G1 X95.207 Y117.203 E44.35908
G1 X95.41 Y116.519 E44.39467
G1 X95.409 Y115.805 E44.4303
G1 X95.208 Y115.122 E44.46582
G1 X94.824 Y114.522 E44.50135
G1 X94.283 Y114.055 E44.53701
G1 X93.635 Y113.759 E44.57255
G1 X92.929 Y113.657 E44.60814
G1 X92.213 Y113.763 E44.64425
G1 X91.566 Y114.063 E44.67983
G1 X91.029 Y114.532 E44.7154
G1 X90.649 Y115.132 E44.75083
G1 X90.451 Y115.805 E44.78583
G1 X90.451 Y116.52 E44.82151
G1 X90.652 Y117.203 E44.85702
G1 X91.037 Y117.803 E44.89259
G1 X91.577 Y118.271 E44.92824
G1 X92.237 Y118.567 E44.96433
G0 F3600 X92.349 Y118.179
;TYPE:WALL-OUTER
G1 F3000 X92.93 Y118.262 E44.99361
G1 X93.521 Y118.177 E45.0234
G1 X94.066 Y117.93 E45.05325
G1 X94.517 Y117.538 E45.08306
G1 X94.84 Y117.035 E45.11289
G1 X95.01 Y116.461 E45.14275
G1 X95.009 Y115.863 E45.17259
G1 X94.84 Y115.29 E45.20239
G1 X94.518 Y114.787 E45.23219
G1 X94.065 Y114.395 E45.26207
G1 X93.521 Y114.147 E45.2919
G1 X92.93 Y114.061 E45.3217
G1 X92.329 Y114.15 E45.35201
G1 X91.786 Y114.402 E45.38187
G1 X91.336 Y114.795 E45.41168
G1 X91.017 Y115.299 E45.44144
G1 X90.851 Y115.863 E45.47077
G1 X90.851 Y116.462 E45.50066
G1 X91.02 Y117.035 E45.53046
G1 X91.343 Y117.539 E45.56033
G1 X91.794 Y117.93 E45.5901
G1 X92.349 Y118.179 E45.62045
G0 F3600 X92.547 Y118.207
G0 X92.476 Y118.702
G0 X156.418 Y118.673
G0 X156.489 Y118.179
G1 F3000 X157.07 Y118.262 E45.64973
G1 X157.661 Y118.177 E45.67952
G1 X158.214 Y117.923 E45.70988
G1 X158.664 Y117.53 E45.73969
G1 X158.981 Y117.035 E45.76901
G1 X159.15 Y116.461 E45.79887
G1 X159.149 Y115.863 E45.8287
G1 X158.98 Y115.29 E45.85851
G1 X158.658 Y114.787 E45.8883
G1 X158.205 Y114.395 E45.91819
G1 X157.661 Y114.147 E45.94802
G1 X157.07 Y114.061 E45.97781
G1 X156.479 Y114.147 E46.00761
G1 X155.935 Y114.395 E46.03744
G1 X155.482 Y114.787 E46.06732
G1 X155.157 Y115.299 E46.09758
G1 X154.991 Y115.863 E46.12691
G1 X154.991 Y116.462 E46.15679
G1 X155.16 Y117.035 E46.1866
G1 X155.483 Y117.539 E46.21646
G1 X155.944 Y117.935 E46.24678
G1 X156.489 Y118.179 E46.27657
G0 F3600 X156.687 Y118.207
G0 X156.616 Y118.702
G0 X162.035 Y122.963
G0 X162.061 Y123.462
G1 F3000 X87.939 Y123.462 E49.97454
G1 X87.096 Y123.389 E50.01675
G1 X86.291 Y123.173 E50.05833
G1 X85.531 Y122.819 E50.10016
G1 X84.838 Y122.334 E50.14236
G1 X84.248 Y121.741 E50.18409
G1 X83.773 Y121.061 E50.22548
G1 X83.415 Y120.291 E50.26784
G1 X83.203 Y119.497 E50.30884
G1 X83.13 Y118.662 E50.35066
G1 X83.13 Y46.671 E53.94231
G1 X83.206 Y45.81 E53.98543
G1 X83.426 Y45.005 E54.02706
G1 X83.773 Y44.263 E54.06793
G1 X84.258 Y43.572 E54.11005
G1 X84.842 Y42.987 E54.15129
G1 X85.537 Y42.501 E54.1936
G1 X86.301 Y42.148 E54.23558
G1 X87.096 Y41.935 E54.27665
G1 X87.939 Y41.862 E54.31886
G1 X162.077 Y41.862 E58.01762
G1 X162.904 Y41.935 E58.05904
G1 X163.718 Y42.155 E58.10111
G1 X164.468 Y42.504 E58.14238
G1 X165.16 Y42.99 E58.18457
G1 X165.756 Y43.589 E58.22672
G1 X166.234 Y44.277 E58.26852
G1 X166.585 Y45.033 E58.3101
G1 X166.798 Y45.836 E58.35155
G1 X166.87 Y46.662 E58.39292
G1 X166.87 Y118.669 E61.98536
G1 X166.797 Y119.497 E62.02683
G1 X166.574 Y120.319 E62.06932
G1 X166.226 Y121.064 E62.11034
G1 X165.74 Y121.755 E62.15249
G1 X165.146 Y122.346 E62.1943
G1 X164.455 Y122.826 E62.23627
G1 X163.699 Y123.177 E62.27785
G1 X162.89 Y123.391 E62.3196
G1 X162.061 Y123.462 E62.36111
G0 F3600 X161.861 Y123.462
G0 X161.861 Y122.962
G0 X156.418 Y51.673
G0 X156.489 Y51.179
G1 F3000 X157.07 Y51.262 E62.3904
G1 X157.661 Y51.177 E62.42018
G1 X158.214 Y50.923 E62.45054
G1 X158.664 Y50.53 E62.48035
G1 X158.981 Y50.035 E62.50968
G1 X159.15 Y49.461 E62.53953
G1 X159.149 Y48.863 E62.56936
G1 X158.98 Y48.29 E62.59917
G1 X158.658 Y47.787 E62.62896
G1 X158.205 Y47.395 E62.65885
G1 X157.661 Y47.147 E62.68868
G1 X157.07 Y47.061 E62.71847
G1 X156.479 Y47.147 E62.74827
G1 X155.935 Y47.395 E62.7781
G1 X155.482 Y47.787 E62.80799
G1 X155.157 Y48.299 E62.83824
G1 X154.991 Y48.863 E62.86757
G1 X154.991 Y49.462 E62.89746
G1 X155.16 Y50.035 E62.92726
G1 X155.483 Y50.539 E62.95713
G1 X155.944 Y50.935 E62.98745
G1 X156.489 Y51.179 E63.01724
G0 F3600 X156.687 Y51.207
G0 X156.616 Y51.702
G0 X92.278 Y51.673
G0 X92.349 Y51.179
G1 F3000 X92.93 Y51.262 E63.04652
G1 X93.521 Y51.177 E63.07631
G1 X94.066 Y50.93 E63.10616
G1 X94.517 Y50.538 E63.13597
G1 X94.84 Y50.035 E63.16579
G1 X95.01 Y49.461 E63.19566
G1 X95.009 Y48.863 E63.22549
G1 X94.84 Y48.29 E63.2553
G1 X94.518 Y47.787 E63.28509
G1 X94.065 Y47.395 E63.31498
G1 X93.521 Y47.147 E63.34481
G1 X92.93 Y47.061 E63.37461
G1 X92.329 Y47.15 E63.40492
G1 X91.786 Y47.402 E63.43478
G1 X91.336 Y47.795 E63.46459
G1 X91.017 Y48.299 E63.49435
G1 X90.851 Y48.863 E63.52368
G1 X90.851 Y49.462 E63.55356
G1 X91.02 Y50.035 E63.58337
G1 X91.343 Y50.539 E63.61323
G1 X91.794 Y50.93 E63.64301
G1 X92.349 Y51.179 E63.67336
G0 F3600 X92.547 Y51.207
G0 X92.128 Y51.945
;TYPE:SKIN
G1 F3000 X92.93 Y52.06 E63.71378
G1 X93.745 Y51.943 E63.75486
G1 X94.497 Y51.602 E63.79605
G1 X95.121 Y51.06 E63.83729
G1 X95.566 Y50.367 E63.87838
G1 X95.8 Y49.575 E63.91958
G1 X95.799 Y48.749 E63.96079
G1 X95.567 Y47.958 E64.00191
G1 X95.122 Y47.264 E64.04304
G1 X94.496 Y46.723 E64.08432
G1 X93.746 Y46.381 E64.12545
G1 X92.929 Y46.263 E64.16663
G1 X92.1 Y46.385 E64.20843
G1 X91.351 Y46.733 E64.24964
G1 X90.73 Y47.275 E64.29076
G1 X90.29 Y47.97 E64.3318
G1 X90.061 Y48.749 E64.37231
G1 X90.061 Y49.576 E64.41357
G1 X90.293 Y50.367 E64.45469
G1 X90.739 Y51.061 E64.49585
G1 X91.365 Y51.603 E64.53716
G1 X92.128 Y51.945 E64.57888
G0 F3600 X91.007 Y50.829
G0 X87.971 Y42.652
G1 F3000 X162.052 Y42.652 E68.27479
G1 X162.763 Y42.715 E68.3104
G1 X163.445 Y42.899 E68.34564
G1 X164.067 Y43.189 E68.37988
G1 X164.651 Y43.599 E68.41548
G1 X165.151 Y44.1 E68.45079
G1 X165.546 Y44.67 E68.48539
G1 X165.836 Y45.296 E68.51981
G1 X166.018 Y45.982 E68.55522
G1 X166.08 Y46.684 E68.59038
G1 X166.08 Y118.65 E72.18078
G1 X166.017 Y119.355 E72.21609
G1 X165.828 Y120.052 E72.25212
G1 X165.543 Y120.664 E72.2858
G1 X165.138 Y121.239 E72.32089
G1 X164.635 Y121.739 E72.35627
G1 X164.058 Y122.14 E72.39133
G1 X163.435 Y122.429 E72.42559
G1 X162.752 Y122.61 E72.46084
G1 X162.03 Y122.672 E72.497
G1 X87.971 Y122.672 E76.19182
G1 X87.229 Y122.608 E76.22897
G1 X86.566 Y122.43 E76.26322
G1 X85.932 Y122.135 E76.29811
G1 X85.347 Y121.725 E76.33375
G1 X84.854 Y121.23 E76.3686
G1 X84.459 Y120.663 E76.40308
G1 X84.161 Y120.021 E76.43839
G1 X83.982 Y119.355 E76.4728
G1 X83.92 Y118.65 E76.5081
G1 X83.92 Y46.695 E80.09795
G1 X83.986 Y45.954 E80.13507
G1 X84.173 Y45.273 E80.1703
G1 X84.456 Y44.663 E80.20385
G1 X84.865 Y44.082 E80.2393
G1 X85.348 Y43.598 E80.27341
G1 X85.93 Y43.191 E80.30884
G1 X86.582 Y42.89 E80.34467
G1 X87.229 Y42.716 E80.3781
G1 X87.971 Y42.652 E80.41525
G0 F3600 X154.201 Y49.576
G1 F3000 X154.433 Y50.367 E80.45638
G1 X154.88 Y51.063 E80.49765
G1 X155.516 Y51.609 E80.53946
G1 X156.268 Y51.945 E80.58056
G1 X157.07 Y52.06 E80.62098
G1 X157.886 Y51.943 E80.6621
G1 X158.648 Y51.593 E80.70394
G1 X159.268 Y51.051 E80.74502
G1 X159.708 Y50.367 E80.7856
G1 X159.94 Y49.574 E80.82682
G1 X159.939 Y48.749 E80.86798
G1 X159.707 Y47.958 E80.90911
G1 X159.262 Y47.264 E80.95024
G1 X158.636 Y46.723 E80.99151
G1 X157.886 Y46.381 E81.03264
G1 X157.07 Y46.263 E81.07377
G1 X156.254 Y46.381 E81.11491
G1 X155.504 Y46.724 E81.15605
G1 X154.878 Y47.266 E81.19736
G1 X154.43 Y47.97 E81.23899
G1 X154.201 Y48.749 E81.2795
G1 X154.201 Y49.576 E81.32076
G0 F3600 X154.878 Y114.266
G1 F3000 X154.43 Y114.97 E81.36239
G1 X154.201 Y115.749 E81.4029
G1 X154.201 Y116.576 E81.44416
G1 X154.433 Y117.367 E81.48529
G1 X154.88 Y118.063 E81.52656
G1 X155.516 Y118.609 E81.56837
G1 X156.268 Y118.945 E81.60947
G1 X157.07 Y119.06 E81.64989
G1 X157.886 Y118.943 E81.69101
G1 X158.648 Y118.593 E81.73285
G1 X159.268 Y118.051 E81.77393
G1 X159.708 Y117.367 E81.81451
G1 X159.94 Y116.574 E81.85573
G1 X159.939 Y115.749 E81.89689
G1 X159.707 Y114.958 E81.93802
G1 X159.262 Y114.264 E81.97915
G1 X158.636 Y113.723 E82.02042
G1 X157.886 Y113.381 E82.06155
G1 X157.07 Y113.263 E82.10268
G1 X156.254 Y113.381 E82.14382
